X:1
T:Mai
T:MAI!
T:Léon Vasseur
T:à Mademoiselle LEO FRANCHELLI
T:by IMSLP - Pubblico dominio
T:by IMSLP - Pubblico dominio
T:by IMSLP - Pubblico dominio
T:by IMSLP - Pubblico dominio
T:by IMSLP - Pubblico dominio
T:by IMSLP - Pubblico dominio
C:Léon Vasseur
Z:by IMSLP - Pubblico dominio
%%score 1 { ( 2 3 6 ) | ( 4 5 ) }
L:1/8
Q:1/4=70
M:3/4
K:A
V:1 treble nm="Voce"
V:2 treble nm="Piano"
V:3 treble 
V:6 treble 
V:4 bass 
V:5 bass 
V:1
"^And.°° espress." z6 | z6 | z6 | z6 | z6 | z6 | z6 | z6 | z6 |!p! A2 A2 A F | B4 z2 | c3 c BA | %12
w: |||||||||Nous som\- mes en|Mai!|Le cou\- chaut co\-|
 (e2 d) z c2 | c2 B2 A2 | (d2 G) z F2 |"^rit." B2 B,2 A2 |[Q:1/4=60]"^Lento" G2 B2 E z | %17
w: lo\- re d'un|char\- me nou\-|veau _ le|cal\- me des|soirs _ _|
[Q:1/4=70]"^a tempo" A3 B"^cresc.""^cresc." A F | B4- B z | c3 B Af | e2 d z a2 | a z g f e ^d | %22
w: J'ai\- me mieux en\-|co\- re|J'ai\- me mieux en\-|co\- re Ah!|_ J'ai\- me mieux en\-|
 f e c A E A | (Fe) d3/2 c!>(!{!fermata!B!fermata!c} !fermata!B!>)! c/ |"^a tempo" A2 z4 | %25
w: co\- re l'on\- do\- yant re\-|flet _ de vos che\- veux|noirs!|
 z2 z2!p!{AB} A/ G/ c/ d/ | =c3 G d A/ A/ | e2 =c z c/ c/ c/ c/ |!>(! (=g!>)!G/) z/ z A/ =c/ G G | %29
w: E\- cou\- tez aux|champs la no\- te so\-|no\- re du doux ros\-\- si\-|gnol _ et du gai pin\-|
 =G z z2 z2 |!mf! d d B2 B2 | (d2 B) z z2 | e e e2 e2 | (=g2 e) z z2 |!pp!"^subito" =fd _B2 =F2 | %35
w: son|J'ai\- me mieux en\-|co\- re|J'ai\- me mieux en\-|co\- re|J'ai\- me mieux en\-|
 (E/=F/A/=G/) F2- F z | D _E (=F/=G/) (A/_B/) (=c/d/) (_e/=f/) | %37
w: co _ _ _ re _|le re\- frain * joy\- * eux * de *|
"^rit. a piacere" (=g/=f/) _e/ =B/ =c!mf! z{de} d/ ^B/"^accell." d/ e/ | %38
w: vo\- * tre chan\- son Nous som\- mes en|
"^cresc." =f2- f z!<(!{de} d/ c/ d/ e/!<)! | =f2- f z!f!{de} d/ c/ d/ e/ | %40
w: Mai! _ Nous som\- mes en|Mai! _ Nous som\- mes en|
!ff! =f/ z/"^e slarg." e (=gf) d _B |[Q:1/4=70]"^a tempo"!pp!"^subito" ^c4- c z | %42
w: Mai! Nous som _ mes en|Mai! _|
"^le Chant" G!mf! A B c d2 | c3 c B A | e2 d z c2 | c2 B2 A2 | d2 G z F2 |"^rit." B2 B,2 A2 | %48
w: Le so\- leil là haut|il\- lu\- mi\- neet|do\- re de|ses chauds ray\-|ons _ la|vou\- te des|
[Q:1/4=60]"^Lento"!>(! (G2 B2 E)!>)! z |!p![Q:1/4=70]"^A. tempo" A3"^cresc." B AF | B4- B z | %51
w: cieux _ _|J'ai\- me mieux en\-|co\- re|
!mf! c3 B A f |!>(! (e2 d)!>)! z a2- | a z g f e ^d | f e c A F A | %55
w: J'ai\- me mieux en\-|co\- re Ah!|_ J'ai\- me mieux en\-|co\- re le so\- leil de|
 (Fe) d c{!fermata!B!fermata!c} !fermata!B3/2 c/ |[Q:1/4=70]"^a tempo." A2 z2!p! A/ B/ c/ B/ | %57
w: Maj _ qui luit dans vos|yeux! J'ai\- me mieux en\-|
 (B2 A) z A/ B/ c/ B/ | (B2 A) z!<(! (A/^G/) A/ =c/!<)! |"^cresc." =f4!<(! f2!<)! | %60
w: * re J'ai\- me mieux en\-|co\- re Oui _ j'ai\- me|mieux en\-|
!f!"^a piacere" _b =f d _B =F D |"^rit." _B,D =F _B d3/2 ^c/ | (d2 d) z[Q:1/4=60]"^Lento" d2 | %63
w: co\- re le so\- leil de|Maj _ qui luit dans vos|yeux! Qui luit|
 d2{ed} c2 !fermata!=B2 | A6- | A z !fermata!z2 z2 |] %66
w: dans vos yeuz!|_||
V:2
!pp! (a/b/a/g/)!<(! ac' ba!<)! |!>(! (g/a/g/^^f/)!>)! (g/^f'/c'/^b/ =d'/b/g/f/) | %2
 (e/f/e/^d/) e!<(!af!<)!e | e/d/c/e/ d"_cresc." f!<(!dc!<)! |!mf! d'3!<(! f'd'c'!<)! | %5
 c'/b/^a/c'/!>(! b fd!p!B!>)! | =A/G/B/A/"^rit." A/G/B/A/ A/G/d/!fermata![D=FG]/ | %7
"^a tempo" [CEA]!pp! z z (.[Ace].[Ace].[Ace]) | z z2 (.[Ace].[Ace].[Ace]) | %9
 z z2 (.[Ace].[Ace].[Fce]) | [Bde]2 z (.[Gde].[Fde].[Ede]) | [ce]2 z (.[ce].[Bde].[Ace]) | %12
 z/ (A/e/a/) d/(A/d/a/) z/ (=G/c/=g/) | f/(F/c/f/) f/(F/c/f/) z/ (E/A/e/) | %14
 d/(D/A/d/) G/(D/G/d/) z/ (C/F/c/) | B/(B,/E/B/) z/ (B,/E/B/) z/ (B,/E/B/) | %16
 z/!>(! (B,/E/B/) z/ (B,/!>)!^D/B/) z/ (B,/=D/E/) |!pp! [CE] z z (.[Bce].[Ace].[Fce]) | %18
 [Bde]2 z (.[Gde].[Fde].[Ede]) | [^Be]2 z (.[Bce]!<(!.[Ace]!<)!.[Ace]) | %20
!>(! (([Ae]2 [Ad]/))!>)! a/!<(!f/d/ A/F/D/A,/!<)! | %21
 z !>![B,^DA]!>![B,DG]!>![B,DF]!>![B,E]!>![B,D] | FE z2!mf! EA | FedcB!>(!(!fermata!G!>)! | %24
 [CEA]) z!pp! z (.[Ace].[Ace].[Ace]) | [CEA]2 z (.[Ace].[Ace].[Ace]) | %26
!pp! (A/G/A/B/) (=c/B/c/A/ d/c/d/B/ | e/d/e/=c/ =g/=f/g/e/ f/e/f/d/ | %28
 e/d/e/=c/ d/c/d/B/ c/B/A/B/) | =c/ (B/c/d/ e/d/c/e/ d/c/B/A/) | (A2 ^G) z"_cresc." d/=c/B/A/ | %31
 A2 G z (=g/=f/e/d/) | (d2 ^c) z (=g/=f/!mf!e/d/) | (d2 c) z{de} (d/c/d/e/) | %34
!pp! (=f/e/f/=g/ (f2) =F) z |!>(! (^G/A/!>)!=c/_B/) A!<(! =F[FA][FA=c]!<)! | %36
 (=f/e/f/=g/) (f2 =F) z | (=F/^G/A/_B/)!>(! (=cF/)!>)! z/ z2 | %38
{de} (d/"_cresc."c/d/e/)!<(! =f z !arpeggio![d^gd']!<)! z | %39
{de} (d/c/d/e/)!<(! =f z !arpeggio![dad']!<)! z | z [=F_Be][FB=g][FB=f][FAd][FB] | %41
!pp! (3[A^ca][Aca][Aca] (3[A^ca][Aca][Aca] (3[Acg][Acg][Acg] | %42
 (3[Bdb][Bdb][Bdb] (3[Bdb][Bdb][Bdb]"_cresc." (3[Bde][Bde][Bde] | %43
!<(! (3[cec'][cec'][cec'] (3[cec'][cec'][cec'] (3[ceb]!<)![ceb][cea] | %44
 (3[Aea][Aea][Aea] (3[Ad][Ad][Ad] (3[=Gc=g][Gcg][Gcg] | %45
!<(! (3[Fcf][Fcf][Fcf] (3[FB][FB][FB]!<)! (3[EAe][EAe][EAe] | %46
!<(! (3[DAd][DAd][DAd] (3[DG][DG]!<)![DG] (3[CFc][CFc][CFc] | %47
 (3[B,E][B,E][B,E] (3[B,EB][B,EB][B,EB] (3[B,FA][B,FA][B,FA] | %48
 (3[B,EG]"_dim."[B,EG][B,EG] (3[B,DB][B,DB]!>(![B,DB] (3[B,=DE][B,DE]([B,DE]!>)! | %49
!pp! [CE]) z"_cresc." z (.[Bce].[Ace].[Fce]) | [Bde]2 z (.[Gde].[Fde].[Ede]) | %51
 [ce]2 z (.[Bde].[Ace].[Acf]) |!>(! (([Ae]2 [Ad]/))!>)!!f! a/f/d/ A/F/D/A,/ | %53
 z !>![B,^DA]!>![B,=DG]!>![B,DF]!>![B,E]!>![B,D] | FE z2 EA | FedcBG | [CEA] z z2 z2 | %57
!pp! (a/b/c'/b/) a z z2 |!pp! (A/B/=c/B/) A z z2 | z"_cresc." [A,=F][A,EF][A,EF][A,_EF][A,EF] | %60
 [_B,D=F] z z2 z2 | z (_B,D=F_B>A) | B2 B z =F^F | =G4 G2- | %64
 G/ z/ z z/ (A/c/e/!8va(! a'/c'/e'/a'/ | c'')!8va)!!ppp! z !fermata![CEc]4 |] %66
V:3
 c2- c/e/c'/e/ b/d/a/c/ | d2- d z z2 | G2- G/G/a/G/ f/G/e/G/ | x6 | c/B/^A/c/ Bfee | dd d x3 | %6
 ^D z D z =D z/ B,/ | x6 | x6 | x6 | x6 | x6 | x6 | x6 | x6 | x6 | x6 | x6 | x6 | x6 | x6 | x6 | %22
 C x3 E^D | =DDEFGE | x6 | x6 | x6 | x6 | x6 | x6 | z [B,D][B,D][B,D] z2 | z [B,D] [B,D][B,D] z2 | %32
 z [E=G][EG][EG] z2 | z [E=G][EG][EG] z2 | [=F_B] z [FB][FB]=FF | x6 | [=F_B] z [FB][FB]FF | x6 | %38
 x6 | x6 | x6 | x6 | x6 | x6 | x6 | x6 | x6 | x6 | x6 | x6 | x6 | x6 | x6 | x6 | C z x2 E^D | %55
 =DDEFGE | x6 | x6 | x6 | x6 | x6 | x6 | x4 (D2 | D2) [^CE]2 ([=DE]2 | [CE]/) x7/2!8va(! x2 | %65
 x!8va)! x5 |] %66
V:4
 (A,,/E,/A,/C/)[K:treble] EFGA | (B/c/B/^A/) B z !arpeggio![EGd] z | %2
[K:bass] (A,,/C,/A,/^B,/) C [A,C][A,=B,D][A,CE] | [A,B,F][A,B,F] [A,B,F] [A,B,D][A,B,D][A,CE] | %4
 [A,DF][A,DF] [A,DF][K:treble] [A,DF] [A,EG][A,F^A] | [A,FB][A,FB] [A,FB][K:bass] [B,D] [DF][D=F] | %6
 (B,^F,) (B,F,) E, !fermata!z | (A,,/E,/A,/C/) E z z2 | (A,,/E,/A,/C/) E z z2 | %9
 (A,,/E,/A,/C/) E z z2 | (A,,/E,/G,/D/) E z z2 | (A,,/E,/A,/C/) E z (=G2 | (F2) F,) z E2 | %13
 (D2 D,) z C2 | (B,2 B,,) z A,2 | G,2 C,2"^segue." ^D,2 | E,2 F,2 G, z | (A,,/E,/A,/C/) E z z2 | %18
 (A,,/E,/G,/D/) E z z2 | (=G,,/E,/A,/C/) E z =G2 | (F2 F,/) z/ z z2 | %21
 [B,,,B,,] !>![B,,A,]!>![B,,A,]!>![B,,A,]!>![B,,A,]!>![B,,A,] | [E,A,] z z2 C=C | B,F,G,A,B,(D | %24
 A,,/)(E,/A,/C/) E z z2 | A,,/(E,/A,/C/) E z z2 | %26
[K:treble] =C/"^leggierissimo"B,/C/D/ E/D/E/C/ =F/E/F/D/ | =G/=F/G/E/ B/A/B/A/ A/G/A/F/ | %28
 =G/=F/G/E/ F/E/F/D/ E/D/=C/D/ | E z z2 z2 | %30
[K:bass] [=F,,=F,]2- [F,,F,] z [B,,,B,,]"^poco             a                                           poco" z | %31
 [=F,,=F,]2- [F,,F,] z z2 | (([_B,,_B,]2 [A,,A,])) z [E,,E,] z | %33
 (([_B,,_B,]2 [A,,A,])) z [=G,,=G,] z |"^subito"{/D,,} (D,2 D,/)._E,/.=F,/.G,/ .A,/._B,/.=C/.D/ | %35
 _E2- E/.D/.=C/._B,/ .A,/.=G,/.=F,/._E,/ |{/D,,} D,2- D,/._E,/.=F,/.G,/ .A,/._B,/.=C/.D/ | %37
"^col canto" _E/(=B,/=C/D/) E z z2 | [_B,,,_B,,] z{DE} (D/^C/D/E/) [_B,=F] z | %39
 [A,,,A,,] z{DE} (D/E/D/E/) [A,=F] z | %40
"^col canto"!f! !>![D,,D,] !>![D,_B,]!>![D,B,]!>![D,B,]!>![D,=C]!>![D,D] | %41
 E,,/"^subito"(E,/A,/^D/) E z z2 | E,,/(E,/G,/D/) E z z2 | E,,/(E,/A,/D/) E z =G,,2 | %44
 E,,/(D,/A,/D/) F z !>!E/(E,/G,/D/) | (D2 D,) z !>!C2 | (D2 D,) z !>!C2 | (G,2 C,2 ^D,2 | %48
 E,2 F,2 G,) z | (A,,/E,/A,/C/) E z z2 | (A,,/E,/A,/C/) E z z2 | (=G,,/E,/A,/C/) E z =G2 | %52
 (F2 F,/) z/ z z2 | !>![B,,,B,,] [B,,A,][B,,A,][B,,A,][B,,A,][B,,A,] | [E,A,] z z2 z2 | %55
 B,F,G,A,B,D | (A,,/E,/A,/C/) (.E.E.E.E) | %57
 (.[G,=A,CE].[G,A,CE].[G,A,CE].[G,A,CE].[G,A,CE].[G,A,CE]) | %58
 (.[F,A,^D].[F,A,D].[F,A,D].[F,A,D].[F,A,D].[F,A,D]) | %59
 [=F,A,_E] [=F,,F,][F,,E,][F,,E,][F,,_E,][F,,E,] | !>![_B,,D,] z"^segue." z2 z2 | %61
"^col    canto." z6 |"^segue." z6 | z2 z2!pp! ((!fermata![E,,E,]2 | A,,/))(E,/A,/C/) E/ z/ z z2 | %65
 z2"^estinto."!>(! !fermata![A,,E,A,]4!>)! |] %66
V:5
 x2[K:treble] E4- | E2- E x3 |[K:bass] x6 | x6 | x3[K:treble] x3 | x3[K:bass] x3 | %6
 E, z E, z E,, x | x6 | x6 | x6 | x6 | x6 | x6 | x6 | x6 | (B,,6 | (E,,4) E,,) x | x6 | x6 | x6 | %20
 x6 | x6 | G,,,2 B,,,2 E,2- | E,E,E,E,E,E, | x6 | x6 |[K:treble] A,6- | A, z z2 (D2 | %28
 =G,) z z2 (G,2 | =C) x5 |[K:bass] x6 | x6 | x6 | x6 | x6 | =F,2- F, z z2 | x6 | F,2- F, x3 | x6 | %39
 x6 | x6 | E,,/ x11/2 | E,,/ x11/2 | E,,/ x11/2 | E,,/ x7/2 E2 | x4 C/(C,/E,/A,/) | %46
 x4 C/(C,/E,/A,/) | (B,,6 | (E,,4) E,,) x | x6 | x6 | x6 | x6 | x6 | x6 | E,E,E,E,E,E, | x6 | x6 | %58
 x6 | x6 | x6 | x6 | x6 | x6 | x6 | x6 |] %66
V:6
 x6 | x6 | x6 | x6 | x6 | x6 | x6 | x6 | x6 | x6 | x6 | x6 | x6 | x6 | x6 | x6 | x6 | x6 | x6 | %19
 x6 | x6 | x6 | x6 | x6 | x6 | x6 | x6 | x6 | x6 | x6 | x6 | x6 | x6 | x6 | x6 | x6 | x6 | x6 | %38
 x6 | x6 | x6 | x6 | x6 | x6 | x6 | x6 | x6 | x6 | x6 | x6 | x6 | x6 | x6 | x6 | x6 | x6 | x6 | %57
 x6 | x6 | x6 | x6 | x6 | E,2 D,2 _B,2 | _G,=G, z4 | x4!8va(! x2 | x!8va)! x5 |] %66

